X:1
T:The Riddle
T:Music by Nik Kershaw 
L:1/8
M:4/4
I:linebreak $
K:A
z2 z4 FG | A2 AB AGFE | E2 FG G2 FG | A2 AB AGFE |$ 
F2 FE E2 FG | A2 AB AGFE | E2 FG G2 FG | A2 ABAGFE |$ 
F2 FE E2 ce | dcBA F2 EF | F2 z z2 FA z | c2 c2 B3 z |$
G2 GB AG F2 | A2 z c dcBd | c2 z A G2 Bc | c2 c2 B3 z |$
G2 GB AGFE | C4 z4 | A2 B2 A2 FG | A2 AB AGFE |$
E2 FG G3/2 z/ FG | A2 AB AGFE | F2 FEE2 ce | dc BA F2 EF |$
F2 z z2 FA z |c2 c2 B3 z | G2 GB AG F2 | A2 z c dcBd |$
c2 A A3 B z | c2 c B3 z2 | G2 z B AGFE | C4 z4 |$ 
A2 B2 AGFE | F2 z z2 FA z | c2 c2 B3 z | G2 GB AGFF |$
A2 z c dcBd | c2 A2 G2 B z | c2 c2 B3 z | G2 GB AGFE |$
C4 z4 | A2 B2 A2 FG | A2 AB AGFE | E2 FG G3/2 z/ FG |$ 
A2 AB AGFE | F2 FE E3/2 z/ FG | A2 AB AGFE | E2 FG G3/2 z/ FG |$
A2 AB AGFE | F2 FE E2 z e | dcBA F2 EF | F3 z2 =GG3/2 z/ |$
[K:C]A3 G F3 z | z GGA ^FGA^F | G2 A3/2 z/ _BAGF | E2 A2 ^G2 B2 |$
c2 B2 G3 z | A3 A/A/ AAAA | _B4 z4 | _B2 c2 B2 GA |$
[K:Bb] B2 Bc BAGF | F2 GA A2 GA |B2 Bc BAGF | G2 GF F2 GA |$
B2 Bc BAGF | F2 GA A2 GA |B2 Bc BAGF | G2 GF F2 df |$ 
edcB G2 GA | B2 Bc BAGF | F2 GA A3/2 z/ GA | B2 Bc BAGF |$ 
G2 GF F3/2 z/ GA | B2 Bc BAGF | F2 GA A3/2 z/ GA | B2 Bc BAGF |$
G2 GF F2 z f | edcB G2 z2 | B2 Bc BAGF | F2 GA A3/2 z/ GA |$ 
 B2 Bc BAGF | G2 GF F3/2 z/ GA | B2 Bc BAGF | F2 GA A2 GA |$ 
 B2 Bc BAGF |G2 GF F2 z f | edcB G2 FG |  G4 z2 df |$
 edcB G2FG | G6 z2 | z8 |] 

